images/vector.svg

<svg width="53" height="22" viewBox="0 0 53 22" fill="none" xmlns="http://www.w3.org/2000/svg">
<path fill-rule="evenodd" clip-rule="evenodd" d="M46.666 21.936H47.66V18.616L50.705 21.591C50.787 21.655 50.873 21.718 50.958 21.778C51.029 21.826 51.099 21.869 51.172 21.908C51.235 21.937 51.303 21.967 51.373 21.979C51.445 21.994 51.518 22.001 51.59 22.001C51.738 22.001 51.887 21.976 52.026 21.91C52.149 21.85 52.256 21.766 52.346 21.661C52.438 21.552 52.502 21.425 52.548 21.292C52.594 21.144 52.617 20.989 52.617 20.838V17.72H51.621V21.031L48.57 18.029C48.333 17.797 48.043 17.621 47.701 17.621C47.568 17.621 47.439 17.65 47.316 17.703C47.197 17.757 47.084 17.83 46.982 17.919C46.889 18.008 46.81 18.115 46.753 18.232C46.694 18.351 46.665 18.477 46.665 18.608V21.936H46.666ZM31.75 14.85H35.239V8.59201L46.75 14.352C47.992 14.969 49.873 15.116 51.082 14.352C52.264 13.608 52.617 12.319 52.617 10.993V0.126007H49.108H11.859C11.171 0.126007 10.495 0.230998 9.841 0.434998C9.202 0.635998 8.607 0.930991 8.073 1.33499C7.553 1.72599 7.133 2.20601 6.811 2.76401C6.473 3.34901 6.328 3.99299 6.328 4.66199C6.328 5.30399 6.46001 5.91501 6.74301 6.48901C7.02001 7.04401 7.38599 7.53 7.85599 7.936C8.32899 8.35201 8.86801 8.66401 9.45801 8.88101C10.063 9.10901 10.694 9.22101 11.343 9.22101H25.749V11.399H3.90302V0H0V14.852H3.90399V14.85H24.375C25.01 14.85 25.628 14.735 26.226 14.512C26.803 14.293 27.34 13.981 27.809 13.575C28.268 13.177 28.635 12.701 28.909 12.156C29.196 11.591 29.323 10.982 29.323 10.353C29.323 9.722 29.196 9.12299 28.936 8.54999C28.682 7.99099 28.334 7.493 27.886 7.073C27.427 6.637 26.889 6.311 26.303 6.077C25.674 5.823 25.01 5.70999 24.33 5.70999H10.131V3.487H49.109V11.512L37.475 5.71799C34.778 4.37599 31.75 4.859 31.75 8.41V14.85ZM5.00601 20.973H1.02899V18.69H5.00601V20.973ZM0.019989 21.936H4.595C4.782 21.936 4.96299 21.905 5.14099 21.839C5.30899 21.776 5.46501 21.686 5.60001 21.567C5.73301 21.45 5.838 21.311 5.918 21.151C5.998 20.987 6.035 20.809 6.035 20.627V19.014C6.035 18.828 6.00001 18.65 5.92001 18.48C5.84201 18.324 5.73999 18.183 5.60699 18.07C5.47399 17.949 5.32001 17.861 5.15601 17.802C4.97801 17.734 4.79799 17.702 4.61099 17.702H0.0190125V21.936H0.019989ZM16.195 21.955V20.909H11.21V20.33H16.195V19.315H11.21V18.699H16.195V17.689H11.698C11.5 17.689 11.299 17.718 11.111 17.781C10.939 17.842 10.781 17.927 10.642 18.045C10.506 18.162 10.4 18.305 10.326 18.465C10.244 18.643 10.213 18.836 10.213 19.031V20.606C10.213 20.795 10.248 20.982 10.33 21.15C10.414 21.311 10.521 21.455 10.658 21.575C10.795 21.697 10.955 21.787 11.131 21.854C11.309 21.917 11.494 21.955 11.686 21.955H16.195ZM26.635 18.695V17.738H21.947C21.755 17.738 21.56 17.767 21.373 17.828C21.193 17.883 21.021 17.967 20.869 18.082C20.723 18.193 20.602 18.329 20.51 18.49C20.415 18.656 20.373 18.838 20.373 19.031C20.373 19.211 20.41 19.388 20.492 19.551C20.568 19.707 20.675 19.85 20.808 19.961C20.943 20.082 21.095 20.17 21.263 20.232C21.437 20.296 21.618 20.33 21.802 20.33H25.913V20.955H20.647V21.935H25.518C25.7 21.935 25.875 21.904 26.043 21.839C26.211 21.776 26.363 21.688 26.495 21.571C26.629 21.458 26.73 21.321 26.809 21.168C26.892 21.005 26.926 20.834 26.926 20.653C26.926 20.473 26.892 20.303 26.816 20.139C26.748 19.981 26.644 19.838 26.519 19.716C26.386 19.594 26.232 19.502 26.066 19.436C25.888 19.362 25.699 19.331 25.505 19.331H21.45V18.694H26.635V18.695ZM32.218 17.701H31.106V21.971H32.218V17.701ZM39.512 19.297V20.313H41.465V20.91H37.385V18.69H42.489V17.702H37.927C37.537 17.702 37.111 17.768 36.79 18.01C36.513 18.222 36.392 18.511 36.392 18.855V20.59C36.392 20.788 36.429 20.984 36.519 21.161C36.607 21.323 36.721 21.46 36.866 21.574C37.015 21.689 37.183 21.774 37.361 21.829C37.549 21.89 37.746 21.919 37.945 21.919H40.869C41.07 21.919 41.267 21.895 41.465 21.841C41.649 21.792 41.82 21.714 41.979 21.603C42.127 21.496 42.25 21.361 42.34 21.199C42.436 21.025 42.475 20.829 42.475 20.628V19.299H39.512V19.297Z" fill="white" opacity="0.5"/>
</svg>

<svg fill="none"
    xmlns="http://www.w3.org/2000/svg" viewBox="0 0 53 22">
    <path fill-rule="evenodd" clip-rule="evenodd" d="M46.666 21.936h.994v-3.32l3.045 2.975a6.6 6.6 0 0 0 .253.187c.071.048.141.091.214.13a.828.828 0 0 0 .201.071c.072.015.145.022.217.022.148 0 .297-.025.436-.091a.993.993 0 0 0 .32-.249c.092-.109.156-.236.202-.369.046-.148.069-.303.069-.454V17.72h-.996v3.311l-3.051-3.002c-.237-.232-.527-.408-.869-.408a.968.968 0 0 0-.385.082 1.373 1.373 0 0 0-.334.216 1.108 1.108 0 0 0-.229.313.837.837 0 0 0-.088.376v3.328h.001ZM31.75 14.85h3.489V8.592l11.511 5.76c1.242.617 3.123.764 4.332 0 1.182-.744 1.535-2.033 1.535-3.359V.126H11.859c-.688 0-1.364.105-2.018.309a5.783 5.783 0 0 0-1.768.9c-.52.391-.94.871-1.262 1.429-.338.585-.483 1.229-.483 1.898 0 .642.132 1.253.415 1.827a4.602 4.602 0 0 0 1.113 1.447 5.039 5.039 0 0 0 1.602.945 5.31 5.31 0 0 0 1.885.34h14.406v2.178H3.903V0H0v14.852h3.904v-.002h20.471c.635 0 1.253-.115 1.851-.338a5.264 5.264 0 0 0 1.583-.937 4.592 4.592 0 0 0 1.1-1.419 3.935 3.935 0 0 0 .414-1.803c0-.631-.127-1.23-.387-1.803a4.632 4.632 0 0 0-1.05-1.477 4.931 4.931 0 0 0-1.583-.996 5.231 5.231 0 0 0-1.973-.367H10.131V3.487h38.978v8.025L37.475 5.718c-2.697-1.342-5.725-.859-5.725 2.692v6.44ZM5.006 20.973H1.029V18.69h3.977v2.283Zm-4.986.963h4.575c.187 0 .368-.031.546-.097.168-.063.324-.153.459-.272.133-.117.238-.256.318-.416.08-.164.117-.342.117-.524v-1.613c0-.186-.035-.364-.115-.534a1.284 1.284 0 0 0-.313-.41 1.34 1.34 0 0 0-.451-.268 1.507 1.507 0 0 0-.545-.1H.019v4.234H.02Zm16.175.019v-1.046H11.21v-.579h4.985v-1.015H11.21v-.616h4.985v-1.01h-4.497c-.198 0-.399.029-.587.092-.172.061-.33.146-.469.264a1.235 1.235 0 0 0-.429.986v1.575c0 .189.035.376.117.544.084.161.191.305.328.425.137.122.297.212.473.279.178.063.363.101.555.101h4.509Zm10.44-3.26v-.957h-4.688c-.192 0-.387.029-.574.09-.18.055-.352.139-.504.254a1.352 1.352 0 0 0-.359.408 1.07 1.07 0 0 0-.137.541c0 .18.037.357.119.52.076.156.183.299.316.41.135.121.287.209.455.271.174.064.355.098.539.098h4.111v.625h-5.266v.98h4.871c.182 0 .357-.031.525-.096.168-.063.32-.151.452-.268.134-.113.235-.25.314-.403a1.11 1.11 0 0 0 .117-.515 1.2 1.2 0 0 0-.11-.514 1.335 1.335 0 0 0-.297-.423 1.467 1.467 0 0 0-.453-.28 1.449 1.449 0 0 0-.561-.105H21.45v-.637h5.185v.001Zm5.583-.994h-1.112v4.27h1.112v-4.27Zm7.294 1.596v1.016h1.953v.597h-4.08v-2.22h5.104v-.988h-4.562c-.39 0-.816.066-1.137.308-.277.212-.398.501-.398.845v1.735c0 .198.037.394.127.571.088.162.202.299.347.413.149.115.317.2.495.255.188.061.385.09.584.09h2.924c.201 0 .398-.024.596-.078.184-.049.355-.127.514-.238a1.24 1.24 0 0 0 .361-.404 1.17 1.17 0 0 0 .135-.571v-1.329h-2.963v-.002Z" fill="#fff" opacity="0.5"/>
</svg>
